dist/assets/img/svg/icon-vk.svg

<svg width="20" height="12" viewBox="0 0 20 12"  xmlns="http://www.w3.org/2000/svg">
<g id="Group">
<path id="Vector" d="M10.8931 12C4.0599 12 0.162399 7.49549 0 0H3.42286C3.53529 5.5015 6.05865 7.83183 8.0574 8.31231V0H11.2805V4.74474C13.2543 4.54054 15.3277 2.37838 16.0273 0H19.2503C18.7132 2.93093 16.4646 5.09309 14.8656 5.98198C16.4646 6.7027 19.0256 8.58859 20 12H16.4521C15.6901 9.71772 13.7914 7.95195 11.2805 7.71171V12H10.8931Z" />
</g>
</svg>

<svg width="20" height="12" xmlns="http://www.w3.org/2000/svg"><path d="M10.893 12C4.06 12 .163 7.495 0 0h3.423c.112 5.502 2.636 7.832 4.634 8.312V0h3.223v4.745C13.255 4.54 15.329 2.378 16.027 0h3.223c-.537 2.93-2.785 5.093-4.384 5.982 1.599.72 4.16 2.607 5.134 6.018h-3.548c-.762-2.282-2.66-4.048-5.172-4.288V12h-.387z"/></svg>98198C16.4646 6.7027 19.0256 8.58859 20 12H16.4521C15.6901 9.71772 13.7914 7.95195 11.2805 7.71171V12H10.8931Z" />
</g>
</svg>
